packages/core/src/svgs/tokens/branded/HTR.svg

<svg width="24" height="24" viewBox="0 0 24 24" fill="none" xmlns="http://www.w3.org/2000/svg">
<path d="M3.11112 12C3.11112 7.12779 7.12779 3.11112 12 3.11112C16.8722 3.11112 20.8889 7.12779 20.8889 12C20.8889 16.8722 16.8722 20.8889 12 20.8889C7.12779 20.8889 3.11112 16.8722 3.11112 12ZM12 2C10.6868 2 9.38643 2.25866 8.17317 2.76121C6.95992 3.26376 5.85752 4.00035 4.92893 4.92894C4.00035 5.85752 3.26376 6.95992 2.76121 8.17317C2.25866 9.38643 2 10.6868 2 12C2 13.3132 2.25866 14.6136 2.76121 15.8269C3.26376 17.0401 4.00035 18.1425 4.92893 19.0711C5.85752 19.9997 6.95992 20.7362 8.17317 21.2388C9.38643 21.7414 10.6868 22 12 22C14.6522 22 17.1957 20.9465 19.071 19.0711C20.9465 17.1957 22 14.6522 22 12C22 9.34784 20.9465 6.80431 19.071 4.92894C17.1957 3.05358 14.6522 2 12 2ZM13.6666 9.22222C12.2556 9.27222 11.0555 9.69995 10.3333 10.8889V5.33334H8.66667V13.6666H7.55556V15.3334H12V13.6666H10.8889V12.9111C10.8889 11.8556 11.9389 10.6889 13.0222 10.6612C14.4944 10.6223 15.2166 11.5612 15.3333 12.9111V18.1111H17.0001V12.3334C17.0001 10.3333 15.3333 9.22222 13.6666 9.22222ZM7.55556 16.4444V18.1111H12V16.4444H7.55556Z" fill="white"/>
</svg>

<svg xmlns="http://www.w3.org/2000/svg" width="24" height="24" fill="none" viewBox="0 0 24 24">
    <path fill="#fff" d="M3.111 12c0-4.872 4.017-8.889 8.889-8.889S20.889 7.128 20.889 12 16.872 20.889 12 20.889 3.111 16.872 3.111 12M12 2a10 10 0 1 0 0 20 10 10 0 0 0 0-20m1.667 7.222c-1.411.05-2.611.478-3.334 1.667V5.333H8.667v8.334H7.556v1.666H12v-1.666h-1.111v-.756c0-1.055 1.05-2.222 2.133-2.25 1.472-.039 2.195.9 2.311 2.25v5.2H17v-5.778c0-2-1.667-3.11-3.333-3.11m-6.111 7.222v1.667H12v-1.667z"/>
</svg>
